priv/static/svgs/icons_new/controls-clear.svg

<svg width="32" height="32" viewBox="0 0 32 32" fill="none" xmlns="http://www.w3.org/2000/svg">
<path d="M11.5455 9.31826L11.5456 9.31834L11.553 9.31124L11.6929 9.1774C12.238 8.74854 12.9067 8.5 13.5585 8.5H24.0082C25.5854 8.5 26.7908 9.69651 26.7478 11.1351L26.7476 11.1425V11.15V20.85C26.7476 22.3034 25.5295 23.5 23.956 23.5H13.5585C12.884 23.5 12.2252 23.2866 11.7016 22.8309L11.553 22.6888L11.5531 22.6887L11.5455 22.6817L5.07089 16.7356C4.86223 16.5341 4.7583 16.2678 4.7583 16C4.7583 15.7322 4.86223 15.4659 5.07088 15.2645L11.5455 9.31826Z" stroke="black" stroke-linecap="round"/>
</svg>

<svg width="32" height="32" viewBox="0 0 32 32" fill="none" xmlns="http://www.w3.org/2000/svg">
  <symbol id="item" viewBox="0 0 32 32" stroke-width="1" fill="none">
    <path d="M11.546 9.318h0l.007-.007.14-.134c.545-.428 1.214-.677 1.866-.677h10.45c1.576 0 2.782 1.197 2.739 2.635v9.715c0 1.453-1.219 2.65-2.792 2.65H13.559c-.675 0-1.334-.213-1.857-.67l-.149-.141h0l-.008-.007-6.474-5.946A1.017 1.017 0 0 1 4.758 16c0-.268.104-.534.313-.736l6.475-5.946Z" stroke="currentColor" stroke-linecap="round"/>
  </symbol>
</svg>
